packages/foundations/assets/icons/functional/images/social/face_disappointed.svg

<svg xmlns="http://www.w3.org/2000/svg" width="32" height="32" fill="none"><path fill="#1A1C1F" fill-rule="evenodd" d="M15.12 4.032c-1.759.182-3.011.524-4.378 1.196a11.92 11.92 0 0 0-5.52 5.519 11.97 11.97 0 0 0 1.427 12.761c.77.96 1.778 1.872 2.844 2.571 1.079.708 2.675 1.372 3.963 1.65a12.01 12.01 0 0 0 13.322-6.476 11.97 11.97 0 0 0-1.427-12.761 12.07 12.07 0 0 0-7.591-4.357c-.545-.082-2.211-.147-2.64-.103m2.56 1.802c4.017.685 7.273 3.662 8.292 7.579.278 1.071.389 2.541.272 3.627-.47 4.383-3.622 7.98-7.876 8.991-1.113.264-2.645.338-3.748.182-4.562-.649-8.072-4.11-8.815-8.693-.091-.561-.091-2.479 0-3.04.475-2.932 2.059-5.417 4.495-7.054 1.214-.817 2.8-1.427 4.18-1.609.235-.031.499-.066.587-.079.343-.048 2.156.018 2.613.096m-4.213 5.503c-.244.127-.312.205-.535.613-.508.926-1.432 1.315-2.415 1.017-.456-.139-.664-.141-.95-.012-.419.191-.626.642-.53 1.153.06.32.404.617.883.762.921.278 1.657.268 2.541-.037 1.002-.345 1.782-1.038 2.289-2.033.39-.766-.027-1.547-.827-1.546-.164 0-.368.037-.456.083m4.213 0c-.24.126-.352.241-.46.476-.129.283-.123.525.023.88.278.674.991 1.466 1.653 1.836 1.02.571 2.101.691 3.189.354.467-.145.69-.302.835-.588a.98.98 0 0 0-.753-1.428c-.158-.017-.362.013-.621.093-1.017.315-2.003-.123-2.501-1.111-.21-.415-.488-.596-.916-.595-.159 0-.361.038-.449.083m-2.818 4.265c-2.07.39-3.726 1.814-4.558 3.918-.24.608-.308.968-.23 1.227.079.265.347.578.577.674.274.115.503.087 1.174-.143 2.911-.998 5.516-.998 8.346.002.641.226.901.257 1.178.141.231-.096.498-.409.579-.679.082-.274-.024-.738-.333-1.457-.776-1.808-2.248-3.119-4.023-3.584-.675-.177-2.033-.227-2.71-.099m2.178 2.024c.472.12 1.124.46 1.533.798.314.26.431.403.331.403-.016 0-.298-.048-.627-.105-.328-.058-.846-.13-1.149-.16-1.076-.107-2.184-.055-3.405.16-.329.057-.611.105-.627.105-.194 0 .528-.61 1.031-.871.685-.355 1.229-.47 2.06-.434.293.012.677.059.853.104"/></svg>

<svg width="32" height="32" viewBox="0 0 32 32" fill="none" xmlns="http://www.w3.org/2000/svg"><path d="M15.120 4.032 C 13.361 4.214,12.109 4.556,10.742 5.228 C 8.306 6.424,6.413 8.318,5.222 10.747 C 3.181 14.911,3.736 19.872,6.649 23.508 C 7.419 24.468,8.427 25.380,9.493 26.079 C 10.572 26.787,12.168 27.451,13.456 27.729 C 18.856 28.892,24.340 26.226,26.778 21.253 C 28.819 17.089,28.264 12.128,25.351 8.492 C 23.477 6.153,20.746 4.586,17.760 4.135 C 17.215 4.053,15.549 3.988,15.120 4.032 M17.680 5.834 C 21.697 6.519,24.953 9.496,25.972 13.413 C 26.250 14.484,26.361 15.954,26.244 17.040 C 25.774 21.423,22.622 25.020,18.368 26.031 C 17.255 26.295,15.723 26.369,14.620 26.213 C 10.058 25.564,6.548 22.103,5.805 17.520 C 5.714 16.959,5.714 15.041,5.805 14.480 C 6.280 11.548,7.864 9.063,10.300 7.426 C 11.514 6.609,13.100 5.999,14.480 5.817 C 14.715 5.786,14.979 5.751,15.067 5.738 C 15.410 5.690,17.223 5.756,17.680 5.834 M13.467 11.337 C 13.223 11.464,13.155 11.542,12.932 11.950 C 12.424 12.876,11.500 13.265,10.517 12.967 C 10.061 12.828,9.853 12.826,9.567 12.955 C 9.148 13.146,8.941 13.597,9.037 14.108 C 9.097 14.428,9.441 14.725,9.920 14.870 C 10.841 15.148,11.577 15.138,12.461 14.833 C 13.463 14.488,14.243 13.795,14.750 12.800 C 15.140 12.034,14.723 11.253,13.923 11.254 C 13.759 11.254,13.555 11.291,13.467 11.337 M17.680 11.337 C 17.440 11.463,17.328 11.578,17.220 11.813 C 17.091 12.096,17.097 12.338,17.243 12.693 C 17.521 13.367,18.234 14.159,18.896 14.529 C 19.916 15.100,20.997 15.220,22.085 14.883 C 22.552 14.738,22.775 14.581,22.920 14.295 C 23.233 13.676,22.847 12.944,22.167 12.867 C 22.009 12.850,21.805 12.880,21.546 12.960 C 20.529 13.275,19.543 12.837,19.045 11.849 C 18.835 11.434,18.557 11.253,18.129 11.254 C 17.970 11.254,17.768 11.292,17.680 11.337 M14.862 15.602 C 12.792 15.992,11.136 17.416,10.304 19.520 C 10.064 20.128,9.996 20.488,10.074 20.747 C 10.153 21.012,10.421 21.325,10.651 21.421 C 10.925 21.536,11.154 21.508,11.825 21.278 C 14.736 20.280,17.341 20.280,20.171 21.280 C 20.812 21.506,21.072 21.537,21.349 21.421 C 21.580 21.325,21.847 21.012,21.928 20.742 C 22.010 20.468,21.904 20.004,21.595 19.285 C 20.819 17.477,19.347 16.166,17.572 15.701 C 16.897 15.524,15.539 15.474,14.862 15.602 M17.040 17.626 C 17.512 17.746,18.164 18.086,18.573 18.424 C 18.887 18.684,19.004 18.827,18.904 18.827 C 18.888 18.827,18.606 18.779,18.277 18.722 C 17.949 18.664,17.431 18.592,17.128 18.562 C 16.052 18.455,14.944 18.507,13.723 18.722 C 13.394 18.779,13.112 18.827,13.096 18.827 C 12.902 18.827,13.624 18.217,14.127 17.956 C 14.812 17.601,15.356 17.486,16.187 17.522 C 16.480 17.534,16.864 17.581,17.040 17.626 " fill="#1A1C1F" stroke="none" fill-rule="evenodd"></path></svg>
